images/menu-copy-type.svg

<svg xmlns="http://www.w3.org/2000/svg" viewBox="0 0 128 64" enable-background="new 0 0 128 64"><style type="text/css">.st0{fill:#83868E;} .st1{fill:#C7CBD7;}</style><path class="st0" d="M103.7 13v3.173h-23.555v-3.173h23.555m1-1h-25.555v5.173h25.555v-5.173zM100.704 18.996h-18.69v3.129h18.691v-3.129zM97.375 24.972h-15.361v3.129h15.361v-3.129zM106.962 30.946h-24.948v3.129h24.949v-3.129zM111.855 36.899v3.173h-31.71v-3.173h31.71m1-1h-33.71v5.173h33.71v-5.173zM82.014 42.895v3.129h29.279v-3.129h-29.279zM82.014 52h21.631v-3.129h-21.631v3.129z"/><path class="st1" d="M39.7 13v3.173h-23.555v-3.173h23.555m1-1h-25.555v5.173h25.555v-5.173zM36.704 18.996h-18.69v3.129h18.691v-3.129zM33.375 24.972h-15.361v3.129h15.361v-3.129zM42.962 30.946h-24.948v3.129h24.949v-3.129zM47.855 36.899v3.173h-31.71v-3.173h31.71m1-1h-33.71v5.173h33.71v-5.173zM18.014 42.895v3.129h29.279v-3.129h-29.279zM18.014 52h21.631v-3.129h-21.631v3.129z"/></svg>

<?xml version="1.0" encoding="utf-8"?>
<!-- Generator: Adobe Illustrator 21.0.1, SVG Export Plug-In . SVG Version: 6.00 Build 0)  -->
<svg version="1.1" id="Layer_1" xmlns="http://www.w3.org/2000/svg" xmlns:xlink="http://www.w3.org/1999/xlink" x="0px" y="0px"
	 viewBox="0 0 128 64" style="enable-background:new 0 0 128 64;" xml:space="preserve">
<style type="text/css">
	.st0{fill:#83868E;}
	.st1{fill:#C7CBD7;}
</style>
<g>
	<path class="st0" d="M103.7,13v3.173H80.145V13H103.7 M104.7,12H79.145v5.173H104.7V12L104.7,12z"/>
	<path class="st0" d="M100.704,18.996H82.014v3.129h18.691V18.996z"/>
	<path class="st0" d="M97.375,24.972H82.014v3.129h15.361V24.972z"/>
	<path class="st0" d="M106.962,30.946H82.014v3.129h24.949V30.946z"/>
	<path class="st0" d="M111.855,36.899v3.173h-31.71v-3.173H111.855 M112.855,35.899h-33.71v5.173h33.71V35.899L112.855,35.899z"/>
	<path class="st0" d="M82.014,42.895v3.129h29.279v-3.129H82.014z"/>
	<path class="st0" d="M82.014,52h21.631v-3.129H82.014V52z"/>
</g>
<g>
	<path class="st1" d="M39.7,13v3.173H16.145V13H39.7 M40.7,12H15.145v5.173H40.7V12L40.7,12z"/>
	<path class="st1" d="M36.704,18.996H18.014v3.129h18.691V18.996z"/>
	<path class="st1" d="M33.375,24.972H18.014v3.129h15.361V24.972z"/>
	<path class="st1" d="M42.962,30.946H18.014v3.129h24.949V30.946z"/>
	<path class="st1" d="M47.855,36.899v3.173h-31.71v-3.173H47.855 M48.855,35.899h-33.71v5.173h33.71V35.899L48.855,35.899z"/>
	<path class="st1" d="M18.014,42.895v3.129h29.279v-3.129H18.014z"/>
	<path class="st1" d="M18.014,52h21.631v-3.129H18.014V52z"/>
</g>
</svg>
